picto/cleaning-room.svg

<svg class="color-immutable" width="24" height="24" viewBox="0 0 24 24" fill="none" xmlns="http://www.w3.org/2000/svg"><path d="M0 22.5V1.5C0 0.675 0.675 0 1.5 0H22.5C23.325 0 24 0.675 24 1.5V22.5C24 23.325 23.325 24 22.5 24H1.5C0.675 24 0 23.325 0 22.5Z" fill="#2D327D"/><path d="M15.815 12L17.111 13.814C17.352 14.151 17.274 14.619 16.937 14.86C16.804 14.955 16.652 15 16.501 15C16.267 15 16.036 14.891 15.89 14.686L13.971 12H12L13.396 20.373C13.456 20.735 13.769 21 14.136 21H18.865C19.232 21 19.545 20.735 19.605 20.373L21 12H15.815Z" fill="white"/><path d="M16.5 14.625C16.383 14.625 16.268 14.57 16.195 14.468L12.445 9.218C12.325 9.049 12.364 8.815 12.532 8.695C12.701 8.575 12.935 8.614 13.055 8.782L16.805 14.032C16.925 14.201 16.886 14.435 16.718 14.555C16.652 14.602 16.576 14.625 16.5 14.625Z" fill="white"/><path d="M15.547 11.625H20.617C20.569 11.246 20.292 10.918 19.898 10.825C19.694 10.777 19.491 10.8 19.312 10.876C19.237 10.469 18.881 10.16 18.452 10.16C18.422 10.16 18.391 10.162 18.361 10.165C18.249 9.77299 17.934 9.45099 17.508 9.34999C16.882 9.20299 16.254 9.59099 16.106 10.217C16.096 10.26 16.09 10.303 16.085 10.346C16.029 10.336 15.971 10.33 15.912 10.33C15.52 10.33 15.182 10.56 15.022 10.891L15.547 11.625Z" fill="white"/><path d="M19.535 9.24898C19.9376 9.24898 20.264 8.9226 20.264 8.51999C20.264 8.11737 19.9376 7.79099 19.535 7.79099C19.1324 7.79099 18.806 8.11737 18.806 8.51999C18.806 8.9226 19.1324 9.24898 19.535 9.24898Z" fill="white"/><path d="M17.349 6.70199C17.7516 6.70199 18.078 6.3756 18.078 5.97299C18.078 5.57037 17.7516 5.24399 17.349 5.24399C16.9464 5.24399 16.62 5.57037 16.62 5.97299C16.62 6.3756 16.9464 6.70199 17.349 6.70199Z" fill="white"/><path d="M18.925 4.458C19.3276 4.458 19.654 4.13162 19.654 3.729C19.654 3.32638 19.3276 3 18.925 3C18.5224 3 18.196 3.32638 18.196 3.729C18.196 4.13162 18.5224 4.458 18.925 4.458Z" fill="white"/><path d="M4.656 20.039C4.669 19.936 4.763 19.864 4.865 19.876C4.968 19.889 5.041 19.983 5.028 20.085L4.914 21H6.563V20.062C6.563 19.958 6.647 19.874 6.751 19.874C6.855 19.874 6.939 19.958 6.939 20.062V21H8.588L8.474 20.086C8.461 19.983 8.534 19.89 8.637 19.877C8.74 19.864 8.833 19.937 8.846 20.04L8.964 21H10.5L10.031 19.125H3.469L3 21H4.536L4.656 20.039Z" fill="white"/><path d="M9.93801 18.75L9.89301 18.568C9.80901 18.234 9.50901 18 9.16401 18H4.33601C3.99201 18 3.69201 18.234 3.60801 18.568L3.56201 18.75H9.93801Z" fill="white"/><path d="M7.17401 17.625H6.42401V3.375C6.42401 3.168 6.59201 3 6.79901 3C7.00601 3 7.17401 3.168 7.17401 3.375V17.625Z" fill="white"/></svg>

<svg class="color-immutable" width="24" height="24" viewBox="0 0 24 24" fill="none" xmlns="http://www.w3.org/2000/svg"><g clip-path="url(#a)"><path d="M0 22.5v-21C0 .675.675 0 1.5 0h21c.825 0 1.5.675 1.5 1.5v21c0 .825-.675 1.5-1.5 1.5h-21C.675 24 0 23.325 0 22.5Z" fill="#2D327D"/><path d="m15.815 12 1.296 1.814a.75.75 0 1 1-1.221.872L13.971 12H12l1.396 8.373a.75.75 0 0 0 .74.627h4.729a.75.75 0 0 0 .74-.627L21 12h-5.185Z" fill="#fff"/><path d="M16.5 14.625a.375.375 0 0 1-.305-.157l-3.75-5.25a.376.376 0 0 1 .61-.436l3.75 5.25a.376.376 0 0 1-.305.593ZM15.547 11.625h5.07a.944.944 0 0 0-1.305-.749.875.875 0 0 0-.951-.711 1.166 1.166 0 0 0-2.276.181.99.99 0 0 0-1.063.545l.525.734ZM19.535 9.249a.729.729 0 1 0 0-1.458.729.729 0 0 0 0 1.458ZM17.349 6.702a.729.729 0 1 0 0-1.458.729.729 0 0 0 0 1.458ZM18.925 4.458a.729.729 0 1 0 0-1.458.729.729 0 0 0 0 1.458ZM4.656 20.039a.188.188 0 0 1 .372.046L4.914 21h1.649v-.938a.188.188 0 1 1 .376 0V21h1.649l-.114-.914a.187.187 0 1 1 .372-.046l.118.96H10.5l-.469-1.875H3.469L3 21h1.536l.12-.961ZM9.938 18.75l-.045-.182A.751.751 0 0 0 9.164 18H4.336a.75.75 0 0 0-.728.568l-.046.182h6.376ZM7.174 17.625h-.75V3.375a.375.375 0 0 1 .75 0v14.25Z" fill="#fff"/></g><defs><clipPath id="a"><path fill="#fff" d="M0 0h24v24H0z"/></clipPath></defs></svg>
